assets/images/icons/peak.svg

<svg width="32" height="32" viewBox="0 0 32 32" fill="none" xmlns="http://www.w3.org/2000/svg">
<path opacity="0.1" d="M0.223155 23.1618C-0.0589054 20.752 -0.098086 18.3874 0.248062 16.248C0.673696 13.6174 1.78493 10.6909 2.99894 8.07362C5.37163 2.95839 9.61911 1.16885 14.7912 0.362065C22.0007 -0.762522 31.9372 0.362091 32 9.08714C31.6383 12.2073 29.2517 20.8815 21.1951 21.5434C18.5313 21.7622 17.5348 24.4378 16.3612 27.5006C13.2729 35.5602 1.25575 31.9835 0.223155 23.1618Z" fill="#7FB51F"/>
<path d="M17.1588 6.23189L11.9438 16.6618C11.8231 16.9033 11.4785 16.9033 11.3577 16.6618L10.4936 14.9334C10.3728 14.692 10.0282 14.692 9.90749 14.9334L4.63657 25.4753C4.52765 25.6931 4.68606 25.9494 4.92962 25.9494H27.0735C27.3171 25.9494 27.4755 25.6931 27.3666 25.4753L17.7449 6.23189C17.6241 5.99041 17.2795 5.99041 17.1588 6.23189ZM17.4518 8.88859L20.2668 14.5185L19.0227 17.0066C18.9488 17.1545 18.7977 17.2479 18.6324 17.2479H17.7215C17.5562 17.2479 17.4051 17.3413 17.3312 17.4891L16.3919 19.3677C16.2311 19.6894 15.7721 19.6894 15.6112 19.3677L13.9117 15.9687L17.4518 8.88859Z" fill="#7FB51F"/>
</svg>

<svg xmlns="http://www.w3.org/2000/svg" width="32" height="32" fill="none"><path fill="#7FB51F" d="M.223 23.162c-.282-2.41-.321-4.775.025-6.914.426-2.63 1.537-5.557 2.75-8.174C5.373 2.958 9.62 1.169 14.792.362 22.001-.763 31.937.362 32 9.087c-.362 3.12-2.748 11.795-10.805 12.456-2.664.22-3.66 2.895-4.834 5.958-3.088 8.06-15.105 4.482-16.138-4.34" opacity=".1"/><path fill="#7FB51F" d="m17.159 6.232-5.215 10.43a.328.328 0 0 1-.586 0l-.864-1.729a.328.328 0 0 0-.587 0l-5.27 10.542a.328.328 0 0 0 .293.474h22.144a.328.328 0 0 0 .293-.474L17.745 6.232a.328.328 0 0 0-.586 0m.293 2.657 2.815 5.63-1.244 2.488a.44.44 0 0 1-.39.24h-.912a.44.44 0 0 0-.39.242l-.94 1.879a.436.436 0 0 1-.78 0l-1.7-3.4z"/></svg>
